src/assets/figma.svg

<svg width="43" height="64" viewBox="0 0 43 64" fill="none" xmlns="http://www.w3.org/2000/svg">
<path d="M10.8334 64C16.7214 64 21.5 59.2214 21.5 53.3334V42.6667H10.8334C4.9454 42.6667 0.166748 47.4454 0.166748 53.3334C0.166748 59.2214 4.9454 64 10.8334 64Z" fill="#111F4C"/>
<path d="M0.166748 31.9999C0.166748 26.1119 4.9454 21.3333 10.8334 21.3333H21.5V42.6665H10.8334C4.9454 42.6665 0.166748 37.8879 0.166748 31.9999Z" fill="#111F4C"/>
<path d="M0.166748 10.6666C0.166748 4.77866 4.9454 0 10.8334 0H21.5V21.3333H10.8334C4.9454 21.3333 0.166748 16.5546 0.166748 10.6666Z" fill="#111F4C"/>
<path d="M21.5 0H32.1667C38.0547 0 42.8333 4.77866 42.8333 10.6666C42.8333 16.5546 38.0547 21.3333 32.1667 21.3333H21.5V0Z" fill="#111F4C"/>
<path d="M42.8333 31.9999C42.8333 37.8879 38.0547 42.6665 32.1667 42.6665C26.2787 42.6665 21.5 37.8879 21.5 31.9999C21.5 26.1119 26.2787 21.3333 32.1667 21.3333C38.0547 21.3333 42.8333 26.1119 42.8333 31.9999Z" fill="#111F4C"/>
</svg>

<svg xmlns="http://www.w3.org/2000/svg" width="43" height="64" fill="#4a4970" xmlns:v="https://vecta.io/nano"><path d="M10.833 64C16.721 64 21.5 59.221 21.5 53.333V42.667H10.833C4.945 42.667.167 47.445.167 53.333S4.945 64 10.833 64z"/><path d="M.167 32c0-5.888 4.779-10.667 10.667-10.667H21.5v21.333H10.833C4.945 42.667.167 37.888.167 32z"/><path d="M.167 10.667C.167 4.779 4.945 0 10.833 0H21.5v21.333H10.833C4.945 21.333.167 16.555.167 10.667z"/><path d="M21.5 0h10.667c5.888 0 10.667 4.779 10.667 10.667s-4.779 10.667-10.667 10.667H21.5V0z"/><path d="M42.833 32c0 5.888-4.779 10.667-10.667 10.667S21.5 37.888 21.5 32s4.779-10.667 10.667-10.667S42.833 26.112 42.833 32z"/></svg>
